src/images/icon/profile_girl.svg

<svg height="48" viewBox="0 0 48 48" width="48" xmlns="http://www.w3.org/2000/svg"><g fill="none"><path d="m0 24c0 8.574374 4.574374 16.4974225 12 20.7846097 7.4256258 4.2871871 16.5743742 4.2871871 24 0 7.425626-4.2871872 12-12.2102357 12-20.7846097 0-13.2548341-10.745166-24-24-24s-24 10.7451659-24 24z" fill="#dee8f1"/><path d="m34.8208 15.3775999.5072 23.0783998-9.7216-2.8741333-.5914667-3.9733333zm-20.9653333 0-.7605334 21.2181332 10.1445334-1.0144-.4229334-4.0576z" fill="#312b28"/><path d="m23.7466667 41.9215997c4.8186666 0 9.2144-1.6058667 12.68-4.3114666-.5072-.6762667-1.3525334-1.5216-2.7893334-2.1978667-2.1978666-1.0986667-4.7338666-1.0986667-4.7338666-1.0986667l-5.3258667 1.6058667-4.1424-1.6906667s-2.8741333.1690667-4.9029333 1.3525334c-1.4373334.8453333-2.4517334 1.8597333-2.9589334 2.3669333 3.4661334 2.536 7.6928 3.9733333 12.1733334 3.9733333z" fill="#ed58ed"/><path d="m21.8021333 30.6783998h4.5648v3.1279999l5.072.7610667s-3.2122666 2.1130667-7.5237333 2.1130667c-3.7194667 0-6.5941333-2.1978667-6.5941333-2.1978667l4.4805333-.7605333v-3.0437333z" fill="#f4d2b8"/><path d="m14.9546667 13.0101332-.1690667 4.5648s.2533333 3.6352.6762667 6.0864c.3381333 1.6906666 1.0144 3.0431999 2.1136 4.6495999 1.6906666 2.1978667 4.8186666 3.8885333 6.3402666 3.8885333 1.6058667 0 4.3114667-1.4373333 6.0016-3.3813333 1.0144-1.1834666 2.536-3.2970666 2.7898667-4.8186666.5072-3.2122667.8453333-8.6223999.8453333-8.6223999l-3.0432-4.0576z" fill="#ffe0c7"/><path d="m23.6618667 6.07839995c-8.2 0-9.8064 6.84746665-9.8064 9.04533325 0 3.3813333-.3381334 8.1152-.3381334 8.1152s.8453334-3.2122667.8453334-3.0432c.0848.5914666.1690666 1.944.1690666 1.944.1690667-.0842667 1.3525334.6762666 1.3525334.6762666l-.0848-5.1567999s2.3669333.0848 4.3957333-.8453334c1.6906667-.8453333 1.9445333-3.9733333 1.9445333-3.9733333s1.0144 3.6352 3.4661334 4.2266667c2.3669333.5914666 6.3402666-.592 6.6784 1.0986666.5072 2.3669333.2538666 3.4661333.0848 4.9877333l1.0144-.5914666s.1690666-1.4373334.2533333-1.9445334c.0848-.8453333.592 2.1978667.592 2.1136 0-.6762666.6762667-3.8042666.6762667-7.3546666-.0842667-4.4794666-4.0576-9.29813325-11.2432-9.29813325z" fill="#312b28"/><path d="m15.3776 20.2805332s-.3381333-1.0144-1.1834667-.5072c-.5072.3381333-.5072 1.6906666-.3381333 2.3669333.2538667.9301333.6762667 1.2682667 1.0144 1.5216.3381333.1690667.7605333.1690667.7605333.1690667zm17.8368-.6762667s.4224-.0848.8453333.1690667c.5072.2533333.5072 1.6906666.3381334 2.3669333-.2538667.9301333-.6762667 1.2682667-1.0144 1.5216-.3381334.1690667-.8453334.2538667-.8453334.1690667z" fill="#ffe0c7"/><path d="m24.0848 28.4805331c-.7610667 0-1.4373333-.2533333-2.0288-.7605333 0 0-.0848-.0848-.0848-.1690667 0-.0848 0-.0848.0848-.1690666.0842667-.0848.2533333-.0848.3381333 0 .9296.8453333 2.4517334.8453333 3.3813334 0 0 0 .0848-.0848.1690666-.0848.0848 0 .0848 0 .1690667.0848 0 0 .0848.0842666.0848.1690666 0 .0842667 0 .0842667-.0848.1690667-.592.5066667-1.3530667.7605333-2.0288.7605333z" fill="#eac3a9"/></g></svg>

<?xml version="1.0" encoding="UTF-8"?>
<svg width="48px" height="48px" viewBox="0 0 48 48" version="1.1" xmlns="http://www.w3.org/2000/svg" xmlns:xlink="http://www.w3.org/1999/xlink">
    
    <g id="Dashboard" stroke="none" stroke-width="1" fill="none" fill-rule="evenodd">
        <g id="00-Menu-交互备份" transform="translate(-613.000000, -62.000000)" fill-rule="nonzero">
            <g id="女头像" transform="translate(613.000000, 62.000000)">
                <path d="M0,24 C0,32.574374 4.574374,40.4974225 12,44.7846097 C19.4256258,49.0717968 28.5743742,49.0717968 36,44.7846097 C43.425626,40.4974225 48,32.574374 48,24 C48,10.7451659 37.254834,7.7610214e-15 24,7.7610214e-15 C10.745166,7.7610214e-15 0,10.7451659 0,24 Z" id="profile_girl" fill="#DEE8F1"></path>
                <path d="M34.8208,15.3775999 L35.328,38.4559997 L25.6064,35.5818664 L25.0149333,31.6085331 L34.8208,15.3775999 Z M13.8554667,15.3775999 L13.0949333,36.5957331 L23.2394667,35.5813331 L22.8165333,31.5237331 L13.8554667,15.3775999 Z" id="形状" fill="#312B28"></path>
                <path d="M23.7466667,41.9215997 C28.5653333,41.9215997 32.9610667,40.315733 36.4266667,37.6101331 C35.9194667,36.9338664 35.0741333,36.0885331 33.6373333,35.4122664 C31.4394667,34.3135997 28.9034667,34.3135997 28.9034667,34.3135997 L23.5776,35.9194664 L19.4352,34.2287997 C19.4352,34.2287997 16.5610667,34.3978664 14.5322667,35.5813331 C13.0949333,36.4266664 12.0805333,37.4410664 11.5733333,37.9482664 C15.0394667,40.4842664 19.2661333,41.9215997 23.7466667,41.9215997 Z" id="路径" fill="#ED58ED"></path>
                <path d="M21.8021333,30.6783998 L26.3669333,30.6783998 L26.3669333,33.8063997 L31.4389333,34.5674664 C31.4389333,34.5674664 28.2266667,36.6805331 23.9152,36.6805331 C20.1957333,36.6805331 17.3210667,34.4826664 17.3210667,34.4826664 L21.8016,33.7221331 L21.8016,30.6783998 L21.8021333,30.6783998 Z" id="路径" fill="#F4D2B8"></path>
                <path d="M14.9546667,13.0101332 L14.7856,17.5749332 C14.7856,17.5749332 15.0389333,21.2101332 15.4618667,23.6613332 C15.8,25.3519998 16.4762667,26.7045331 17.5754667,28.3109331 C19.2661333,30.5087998 22.3941333,32.1994664 23.9157333,32.1994664 C25.5216,32.1994664 28.2272,30.7621331 29.9173333,28.8181331 C30.9317333,27.6346665 32.4533333,25.5210665 32.7072,23.9994665 C33.2144,20.7871998 33.5525333,15.3770666 33.5525333,15.3770666 L30.5093333,11.3194666 L14.9546667,13.0101332 Z" id="路径" fill="#FFE0C7"></path>
                <path d="M23.6618667,6.07839995 C15.4618667,6.07839995 13.8554667,12.9258666 13.8554667,15.1237332 C13.8554667,18.5050665 13.5173333,23.2389332 13.5173333,23.2389332 C13.5173333,23.2389332 14.3626667,20.0266665 14.3626667,20.1957332 C14.4474667,20.7871998 14.5317333,22.1397332 14.5317333,22.1397332 C14.7008,22.0554665 15.8842667,22.8159998 15.8842667,22.8159998 L15.7994667,17.6591999 C15.7994667,17.6591999 18.1664,17.7439999 20.1952,16.8138665 C21.8858667,15.9685332 22.1397333,12.8405332 22.1397333,12.8405332 C22.1397333,12.8405332 23.1541333,16.4757332 25.6058667,17.0671999 C27.9728,17.6586665 31.9461333,16.4751999 32.2842667,18.1658665 C32.7914667,20.5327998 32.5381333,21.6319998 32.3690667,23.1535998 L33.3834667,22.5621332 C33.3834667,22.5621332 33.5525333,21.1247998 33.6368,20.6175998 C33.7216,19.7722665 34.2288,22.8154665 34.2288,22.7311998 C34.2288,22.0549332 34.9050667,18.9269332 34.9050667,15.3765332 C34.8208,10.8970666 30.8474667,6.07839995 23.6618667,6.07839995 L23.6618667,6.07839995 Z" id="路径" fill="#312B28"></path>
                <path d="M15.3776,20.2805332 C15.3776,20.2805332 15.0394667,19.2661332 14.1941333,19.7733332 C13.6869333,20.1114665 13.6869333,21.4639998 13.856,22.1402665 C14.1098667,23.0703998 14.5322667,23.4085332 14.8704,23.6618665 C15.2085333,23.8309332 15.6309333,23.8309332 15.6309333,23.8309332 L15.3776,20.2805332 Z M33.2144,19.6042665 C33.2144,19.6042665 33.6368,19.5194665 34.0597333,19.7733332 C34.5669333,20.0266665 34.5669333,21.4639998 34.3978667,22.1402665 C34.144,23.0703998 33.7216,23.4085332 33.3834667,23.6618665 C33.0453333,23.8309332 32.5381333,23.9157332 32.5381333,23.8309332 L33.2144,19.6042665 Z" id="形状" fill="#FFE0C7"></path>
                <path d="M24.0848,28.4805331 C23.3237333,28.4805331 22.6474667,28.2271998 22.056,27.7199998 C22.056,27.7199998 21.9712,27.6351998 21.9712,27.5509331 C21.9712,27.4661331 21.9712,27.4661331 22.056,27.3818665 C22.1402667,27.2970665 22.3093333,27.2970665 22.3941333,27.3818665 C23.3237333,28.2271998 24.8458667,28.2271998 25.7754667,27.3818665 C25.7754667,27.3818665 25.8602667,27.2970665 25.9445333,27.2970665 C26.0293333,27.2970665 26.0293333,27.2970665 26.1136,27.3818665 C26.1136,27.3818665 26.1984,27.4661331 26.1984,27.5509331 C26.1984,27.6351998 26.1984,27.6351998 26.1136,27.7199998 C25.5216,28.2266665 24.7605333,28.4805331 24.0848,28.4805331 L24.0848,28.4805331 Z" id="路径" fill="#EAC3A9"></path>
            </g>
        </g>
    </g>
</svg>
